GWA/img/blockquote.svg

<svg width="137" height="66" viewBox="0 0 137 66" fill="none" xmlns="http://www.w3.org/2000/svg">
<path opacity="0.2" d="M105.037 66C100.655 66 96.4452 65.1822 92.4069 63.5466C88.4546 61.825 84.9748 59.4146 81.9675 56.3156C79.0462 53.2166 76.6834 49.5151 74.879 45.2109C73.1606 40.8207 72.3014 35.957 72.3014 30.6198C72.3014 23.6471 73.2465 17.363 75.1368 11.7676C77.0271 6.08608 79.6047 1.00717 82.8697 -3.46915C86.2206 -8.03156 90.173 -11.9914 94.7268 -15.3486C99.2806 -18.7059 104.221 -21.5897 109.548 -24L118.183 -15.8651C112.427 -12.5079 107.959 -8.84935 104.78 -4.88953C101.686 -0.929699 99.5384 3.76184 98.3355 9.18508C99.5384 8.84074 100.827 8.53946 102.202 8.2812C103.577 8.02296 105.252 7.89383 107.228 7.89383C111.696 7.89383 115.735 8.53946 119.343 9.8307C123.038 11.122 126.174 13.0158 128.752 15.5122C131.415 17.9225 133.434 20.9354 134.809 24.5509C136.27 28.1664 137 32.2984 137 36.9469C137 40.9928 136.27 44.7805 134.809 48.3099C133.434 51.8393 131.372 54.9383 128.623 57.6069C125.959 60.1894 122.608 62.2554 118.57 63.8049C114.618 65.2683 110.107 66 105.037 66ZM32.7359 66C28.354 66 24.1438 65.1822 20.1055 63.5466C16.1532 61.825 12.6734 59.4146 9.66613 56.3156C6.74481 53.2166 4.38198 49.5151 2.57763 45.2109C0.859211 40.8207 0 35.957 0 30.6198C0 23.6471 0.945132 17.363 2.8354 11.7676C4.72566 6.08608 7.3033 1.00717 10.5683 -3.46915C13.9192 -8.03156 17.8716 -11.9914 22.4254 -15.3486C26.9792 -18.7059 31.9197 -21.5897 37.2468 -24L45.8819 -15.8651C40.1252 -12.5079 35.6573 -8.84935 32.4782 -4.88953C29.385 -0.929699 27.237 3.76184 26.0341 9.18508C27.237 8.84074 28.5258 8.53946 29.9006 8.2812C31.2753 8.02296 32.9507 7.89383 34.9269 7.89383C39.3948 7.89383 43.4331 8.53946 47.0418 9.8307C50.7364 11.122 53.8725 13.0158 56.4502 15.5122C59.1137 17.9225 61.1329 20.9354 62.5076 24.5509C63.9683 28.1664 64.6986 32.2984 64.6986 36.9469C64.6986 40.9928 63.9683 44.7805 62.5076 48.3099C61.1329 51.8393 59.0708 54.9383 56.3213 57.6069C53.6577 60.1894 50.3068 62.2554 46.2685 63.8049C42.3162 65.2683 37.8053 66 32.7359 66Z" fill="#D4B982"/>
</svg>

<svg width="137" height="66" fill="none" xmlns="http://www.w3.org/2000/svg"><path opacity=".2" d="M105.037 66c-4.382 0-8.592-.818-12.63-2.453a32.495 32.495 0 01-10.44-7.231c-2.92-3.1-5.284-6.8-7.088-11.105-1.718-4.39-2.578-9.254-2.578-14.591 0-6.973.945-13.257 2.836-18.852 1.89-5.682 4.468-10.76 7.733-15.237a55.466 55.466 0 0111.857-11.88c4.554-3.357 9.494-6.24 14.821-8.651l8.635 8.135c-5.756 3.357-10.224 7.016-13.403 10.975-3.094 3.96-5.242 8.652-6.445 14.075a42.72 42.72 0 013.867-.904c1.375-.258 3.05-.387 5.026-.387 4.468 0 8.507.645 12.115 1.937 3.695 1.291 6.831 3.185 9.409 5.681 2.663 2.41 4.682 5.423 6.057 9.039C136.27 28.166 137 32.298 137 36.947c0 4.046-.73 7.834-2.191 11.363-1.375 3.53-3.437 6.628-6.186 9.297-2.664 2.582-6.015 4.648-10.053 6.198-3.952 1.463-8.463 2.195-13.533 2.195zm-72.301 0c-4.382 0-8.592-.818-12.63-2.453a32.495 32.495 0 01-10.44-7.231c-2.921-3.1-5.284-6.8-7.088-11.105C.859 40.82 0 35.957 0 30.62c0-6.973.945-13.257 2.835-18.852 1.89-5.682 4.468-10.76 7.733-15.237a55.466 55.466 0 0111.857-11.88c4.554-3.357 9.495-6.24 14.822-8.651l8.635 8.135C40.125-12.508 35.657-8.85 32.478-4.89c-3.093 3.96-5.241 8.652-6.444 14.075a42.735 42.735 0 013.867-.904c1.374-.258 3.05-.387 5.026-.387 4.468 0 8.506.645 12.115 1.937 3.694 1.291 6.83 3.185 9.408 5.681 2.664 2.41 4.683 5.423 6.058 9.039 1.46 3.615 2.19 7.747 2.19 12.396 0 4.046-.73 7.834-2.19 11.363-1.375 3.53-3.437 6.628-6.187 9.297-2.663 2.582-6.014 4.648-10.052 6.198C42.316 65.268 37.805 66 32.736 66z" fill="#D4B982"/></svg>
